X: 17934
T: Housewife's Welcome, The
R: jig
M: 6/8
K: Dmajor
|:ded cBA|BcB AGF|GAG FED|E3E3|
FEF DEF|A^GA Bcd|cBA EA^G|A3A3:|
|:cBA ABc|d3F3|GFG BAG|G3F3|
ABA GAG|FGF E2A|FED CDE|D3D3:|

